Origami/24x24/apps/discord.svg

<svg width="24" height="24" version="1.1" viewBox="0 0 24 24" xmlns="http://www.w3.org/2000/svg">
 <path d="m5 2.5h14c1.108 0 2 0.892 2 2v14c0 1.108-0.892 2-2 2h-14c-1.108 0-2-0.892-2-2v-14c0-1.108 0.892-2 2-2z" style="opacity:.2"/>
 <path d="m5 2h14c1.108 0 2 0.892 2 2v14c0 1.108-0.892 2-2 2h-14c-1.108 0-2-0.892-2-2v-14c0-1.108 0.892-2 2-2z" style="fill:#7289da"/>
 <path d="m21 22.5-5-4h5z" style="fill-rule:evenodd;opacity:.2"/>
 <path d="m5 2c-1.108 0-2 0.892-2 2v0.5c0-1.108 0.892-2 2-2h14c1.108 0 2 0.892 2 2v-0.5c0-1.108-0.892-2-2-2z" style="fill:#ffffff;opacity:.2"/>
 <path d="m10.360352 7.0000702s-1.399184-0.031975-2.879883 1.1240234c-1.4807 1.1560001-2.480469 3.2976704-2.480469 6.7440704 0 0 1.863242 1.556236 4.135742 1.631836 0 0 0.380974-0.475192 0.689454-0.885742-1.305901-0.41055-1.799806-1.264648-1.799806-1.264648 1.118548 0.771101 2.654792 1.13014 3.97461 1.15039 1.319819-0.02025 2.856062-0.379289 3.97461-1.15039 0 0-0.493905 0.854098-1.799805 1.264648 0.30848 0.41055 0.689453 0.885742 0.689453 0.885742 2.2725-0.0756 4.135742-1.631836 4.135742-1.631836 0-3.4464-0.999769-5.5880703-2.480469-6.7440704-1.480699-1.1559999-2.879882-1.1240234-2.879882-1.1240234s-0.07947 0.078709-0.102539 0.1015625c1.850899 0.551 2.694335 1.404297 2.694335 1.404297s-0.22598-0.1298345-0.606445-0.3027346c-0.933687-0.4193619-2.125-0.7031249-3.625-0.7031249s-2.691313 0.283763-3.625 0.7031249c-0.380465 0.1729001-0.606446 0.3027346-0.606446 0.3027346s0.843436-0.853297 2.694337-1.404297c-0.02351-0.041969-0.102539-0.1015625-0.102539-0.1015625zm-0.360352 4.4999298c0.55875 0 1.00975 0.5569 1 1.25 0 0.69325-0.44123 1.25-1 1.25-0.54895 0-1-0.55675-1-1.25 0-0.6931 0.441235-1.25 1-1.25zm4 0c0.558765 0 1 0.5569 1 1.25 0 0.69325-0.45105 1.25-1 1.25-0.55877 0-1-0.55675-1-1.25-0.0098-0.6931 0.44125-1.25 1-1.25z" style="opacity:.2"/>
 <path d="m10.360352 6.5000702s-1.399184-0.031975-2.879883 1.1240234c-1.4807 1.1560001-2.480469 3.2976704-2.480469 6.7440704 0 0 1.863242 1.556236 4.135742 1.631836 0 0 0.380974-0.475192 0.689454-0.885742-1.305901-0.41055-1.799806-1.264648-1.799806-1.264648 1.118548 0.771101 2.654792 1.13014 3.97461 1.15039 1.319819-0.02025 2.856062-0.379289 3.97461-1.15039 0 0-0.493905 0.854098-1.799805 1.264648 0.30848 0.41055 0.689453 0.885742 0.689453 0.885742 2.2725-0.0756 4.135742-1.631836 4.135742-1.631836 0-3.4464-0.999769-5.5880703-2.480469-6.7440704-1.480699-1.1559999-2.879882-1.1240234-2.879882-1.1240234s-0.07947 0.078709-0.102539 0.1015625c1.850899 0.551 2.694335 1.404297 2.694335 1.404297s-0.22598-0.1298345-0.606445-0.3027346c-0.933687-0.4193619-2.125-0.7031249-3.625-0.7031249s-2.691313 0.283763-3.625 0.7031249c-0.380465 0.1729001-0.606446 0.3027346-0.606446 0.3027346s0.843436-0.853297 2.694337-1.404297c-0.02351-0.041969-0.102539-0.1015625-0.102539-0.1015625zm-0.360352 4.4999298c0.55875 0 1.00975 0.5569 1 1.25 0 0.69325-0.44123 1.25-1 1.25-0.54895 0-1-0.55675-1-1.25 0-0.6931 0.441235-1.25 1-1.25zm4 0c0.558765 0 1 0.5569 1 1.25 0 0.69325-0.45105 1.25-1 1.25-0.55877 0-1-0.55675-1-1.25-0.0098-0.6931 0.44125-1.25 1-1.25z" style="fill:#ffffff"/>
 <path d="m21 22-5-4h5z" style="fill-rule:evenodd;fill:#7289da"/>
</svg>

<svg xmlns="http://www.w3.org/2000/svg" width="24" height="24" version="1.1" viewBox="0 0 24 24">
 <path style="opacity:0.2" d="m 5,2.5 h 14 c 1.108,0 2,0.892 2,2 v 14 c 0,1.108 -0.892,2 -2,2 H 5 c -1.108,0 -2,-0.892 -2,-2 v -14 c 0,-1.108 0.892,-2 2,-2 z"/>
 <path style="fill:#7289da" d="m 5,2 h 14 c 1.108,0 2,0.892 2,2 v 14 c 0,1.108 -0.892,2 -2,2 H 5 C 3.892,20 3,19.108 3,18 V 4 C 3,2.892 3.892,2 5,2 Z"/>
 <path style="opacity:0.2;fill-rule:evenodd" d="m 21,22.5 -5,-4 h 5 z"/>
 <path style="opacity:0.2;fill:#ffffff" d="M 5,2 C 3.892,2 3,2.892 3,4 v 0.5 c 0,-1.108 0.892,-2 2,-2 h 14 c 1.108,0 2,0.892 2,2 V 4 C 21,2.892 20.108,2 19,2 Z"/>
 <path style="opacity:0.2" d="m 10.360352,7.0000702 c 0,0 -1.399184,-0.031975 -2.879883,1.1240234 C 5.999769,9.2800937 5,11.421764 5,14.868164 c 0,0 1.863242,1.556236 4.135742,1.631836 0,0 0.380974,-0.475192 0.689454,-0.885742 C 8.519295,15.203708 8.02539,14.34961 8.02539,14.34961 9.143938,15.120711 10.680182,15.47975 12,15.5 c 1.319819,-0.02025 2.856062,-0.379289 3.97461,-1.15039 0,0 -0.493905,0.854098 -1.799805,1.264648 C 14.483285,16.024808 14.864258,16.5 14.864258,16.5 17.136758,16.4244 19,14.868164 19,14.868164 19,11.421764 18.000231,9.2800937 16.519531,8.1240936 15.038832,6.9680937 13.639649,7.0000702 13.639649,7.0000702 c 0,0 -0.07947,0.078709 -0.102539,0.1015625 1.850899,0.551 2.694335,1.404297 2.694335,1.404297 0,0 -0.22598,-0.1298345 -0.606445,-0.3027346 C 14.691313,7.7838332 13.5,7.5000702 12,7.5000702 c -1.5,0 -2.691313,0.283763 -3.625,0.7031249 -0.380465,0.1729001 -0.606446,0.3027346 -0.606446,0.3027346 0,0 0.843436,-0.853297 2.694337,-1.404297 -0.02351,-0.041969 -0.102539,-0.1015625 -0.102539,-0.1015625 z M 10,11.5 c 0.55875,0 1.00975,0.5569 1,1.25 C 11,13.44325 10.55877,14 10,14 9.45105,14 9,13.44325 9,12.75 9,12.0569 9.441235,11.5 10,11.5 Z m 4,0 c 0.558765,0 1,0.5569 1,1.25 0,0.69325 -0.45105,1.25 -1,1.25 -0.55877,0 -1,-0.55675 -1,-1.25 -0.0098,-0.6931 0.44125,-1.25 1,-1.25 z"/>
 <path style="fill:#ffffff" d="m 10.360352,6.5000702 c 0,0 -1.399184,-0.031975 -2.879883,1.1240234 C 5.999769,8.7800937 5,10.921764 5,14.368164 c 0,0 1.863242,1.556236 4.135742,1.631836 0,0 0.380974,-0.475192 0.689454,-0.885742 C 8.519295,14.703708 8.02539,13.84961 8.02539,13.84961 9.143938,14.620711 10.680182,14.97975 12,15 c 1.319819,-0.02025 2.856062,-0.379289 3.97461,-1.15039 0,0 -0.493905,0.854098 -1.799805,1.264648 C 14.483285,15.524808 14.864258,16 14.864258,16 17.136758,15.9244 19,14.368164 19,14.368164 19,10.921764 18.000231,8.7800937 16.519531,7.6240936 15.038832,6.4680937 13.639649,6.5000702 13.639649,6.5000702 c 0,0 -0.07947,0.078709 -0.102539,0.1015625 1.850899,0.551 2.694335,1.404297 2.694335,1.404297 0,0 -0.22598,-0.1298345 -0.606445,-0.3027346 C 14.691313,7.2838332 13.5,7.0000702 12,7.0000702 c -1.5,0 -2.691313,0.283763 -3.625,0.7031249 -0.380465,0.1729001 -0.606446,0.3027346 -0.606446,0.3027346 0,0 0.843436,-0.853297 2.694337,-1.404297 -0.02351,-0.041969 -0.102539,-0.1015625 -0.102539,-0.1015625 z M 10,11 c 0.55875,0 1.00975,0.5569 1,1.25 0,0.69325 -0.44123,1.25 -1,1.25 C 9.45105,13.5 9,12.94325 9,12.25 9,11.5569 9.441235,11 10,11 Z m 4,0 c 0.558765,0 1,0.5569 1,1.25 0,0.69325 -0.45105,1.25 -1,1.25 -0.55877,0 -1,-0.55675 -1,-1.25 C 12.9902,11.5569 13.44125,11 14,11 Z"/>
 <path style="fill:#7289da;fill-rule:evenodd" d="m 21,22 -5,-4 h 5 z"/>
</svg>
